public/ember-cli-visualeditor/styles/themes/apex/images/icons/external-link-ltr.svg

<?xml version="1.0" encoding="utf-8"?>
<svg xmlns="http://www.w3.org/2000/svg" width="12" height="12" viewBox="0 0 12 12">
    <g id="external">
        <path id="box" d="M2 2h3v1h-2v6h6v-2h1v3h-8z"/>
        <path id="arrow" d="M6.211 2h3.789v3.789l-1.421-1.421-2.132 2.132-.947-.947 2.132-2.132z"/>
    </g>
</svg>

<?xml version="1.0" encoding="utf-8"?>
<svg xmlns="http://www.w3.org/2000/svg" width="12" height="12" viewBox="0 0 12 12">
    <g id="external">
        <path id="box" d="M2 2h3v1H3v6h6V7h1v3H2z"/>
        <path id="arrow" d="M6.21 2H10v3.79L8.58 4.367 6.446 6.5 5.5 5.553 7.632 3.42z"/>
    </g>
</svg>
